public/images/internship/card-star.svg

<svg width="107" height="68" viewBox="0 0 107 68" fill="none" xmlns="http://www.w3.org/2000/svg">
    <path d="M68 33.9758C54.6619 35.1875 46.9986 36.3022 42.2939 39.9857C36.7646 44.2994 35.4551 52.1996 34 68C32.4964 51.618 31.1384 43.7662 25.0756 39.5495C20.3709 36.2537 12.7561 35.1875 0 34.0242C13.2896 32.8125 21.0014 31.6978 25.6576 28.0627C31.2354 23.7006 32.5449 15.8489 34 0C35.3581 14.5887 36.5706 22.392 41.0813 26.8995C45.592 31.407 53.4494 32.6671 68 33.9758Z" fill="white"/>
    <path opacity="0.6" d="M101.879 28.1375C94.1872 27.066 89.7129 26.6867 86.5713 28.1475C82.881 29.8556 81.1016 34.1445 78.2 42.8756C79.5074 33.4266 79.774 28.8139 76.9054 25.6347C74.6825 23.1542 70.5227 21.5497 63.4724 19.2137C71.1366 20.2788 75.6383 20.6645 78.7462 19.2246C82.4701 17.4956 84.2432 13.234 87.1512 4.47559C85.9977 12.8927 85.6552 17.4589 87.6091 20.598C89.563 23.7372 93.8342 25.4831 101.879 28.1375Z" fill="white"/>
</svg>

<svg xmlns="http://www.w3.org/2000/svg" width="107" height="68" fill="none"><path fill="#fff" d="M68 33.976c-13.338 1.212-21.001 2.326-25.706 6.01C36.764 44.299 35.455 52.2 34 68c-1.504-16.382-2.862-24.234-8.924-28.45C20.37 36.254 12.756 35.188 0 34.023c13.29-1.212 21.001-2.326 25.658-5.961C31.235 23.7 32.545 15.849 34 0c1.358 14.589 2.57 22.392 7.081 26.9C45.592 31.407 53.45 32.666 68 33.975Z"/><path fill="#fff" d="M101.879 28.137c-7.692-1.071-12.166-1.45-15.308.01-3.69 1.709-5.47 5.998-8.371 14.729 1.307-9.45 1.574-14.062-1.295-17.241-2.222-2.48-6.382-4.085-13.433-6.421 7.665 1.065 12.166 1.45 15.274.01 3.724-1.728 5.497-5.99 8.405-14.748-1.153 8.417-1.496 12.983.458 16.122 1.954 3.14 6.225 4.885 14.27 7.54Z" opacity=".6"/></svg>
